images/cart.svg

<svg xmlns="http://www.w3.org/2000/svg" viewBox="13.5 16 25.5 24" enable-background="new 13.5 16 25.5 24"><path fill="#6B6B6B" d="M36.3 22.4c-.1-.2-.3-.3-.5-.3h-14.7l-.6-1.7c-.1-.2-.2-.3-.4-.4l-3-1.2c-.3-.1-.7 0-.8.4-.1.3 0 .7.4.8l2.7 1.1 3.4 9.7c-.1.1-.3.2-.3.3l-1 2.7c-.1.2 0 .3.1.5.1.1.3.2.4.2h.5c-.3.3-.5.8-.5 1.3 0 1.1.9 1.9 1.9 1.9s1.9-.9 1.9-1.9c0-.5-.2-1-.5-1.3h4.2c-.3.3-.5.8-.5 1.3 0 1.1.9 1.9 1.9 1.9s1.9-.9 1.9-1.9c0-.5-.2-1-.5-1.3h.6c.3 0 .5-.2.5-.5s-.2-.5-.5-.5h-10.2l.6-1.7c.1 0 .2.1.2.1h9.5c.3 0 .5-.2.6-.4l2.7-8.4c.2-.4.1-.6 0-.7zm-12.4 14.3c-.5 0-.9-.4-.9-.9s.4-.9.9-.9.9.4.9.9-.4.9-.9.9zm7.1 0c-.5 0-.9-.4-.9-.9s.4-.9.9-.9.9.4.9.9-.4.9-.9.9zm3.4-11.9h-3.3v-1.5h3.8l-.5 1.5zm-.9 3h-2.4v-1.7h2.9l-.5 1.7zm-6.7 0v-1.7h3v1.7h-3zm3 1.3v1.4h-3v-1.4h3zm-7.3-3h3v1.7h-2.4l-.6-1.7zm4.3-1.3v-1.5h3v1.5h-3zm-1.2-1.4v1.5h-3.5l-.5-1.5h4zm-2 5.7h2v1.4h-1.5l-.5-1.4zm7.5 1.4v-1.4h1.9l-.4 1.4h-1.5z"/><circle fill="#F2A054" stroke="#888788" stroke-width=".351" stroke-miterlimit="10" cx="32.3" cy="22.4" r="4"/><text transform="translate(31.323 24.809)" fill="#fff" font-family="'OstrichSans-Black'" font-size="6.888">2</text></svg>

<?xml version="1.0" encoding="utf-8"?>
<!-- Generator: Adobe Illustrator 17.1.0, SVG Export Plug-In . SVG Version: 6.00 Build 0)  -->
<!DOCTYPE svg PUBLIC "-//W3C//DTD SVG 1.1//EN" "http://www.w3.org/Graphics/SVG/1.1/DTD/svg11.dtd">
<svg version="1.1" id="Layer_2" xmlns="http://www.w3.org/2000/svg" xmlns:xlink="http://www.w3.org/1999/xlink" x="0px" y="0px"
	 viewBox="13.5 16 25.5 24" enable-background="new 13.5 16 25.5 24" xml:space="preserve">
<path fill="#6B6B6B" d="M36.3,22.4c-0.1-0.2-0.3-0.3-0.5-0.3H21.2c0,0-0.1,0-0.1,0l-0.6-1.7c-0.1-0.2-0.2-0.3-0.4-0.4l-3-1.2
	c-0.3-0.1-0.7,0-0.8,0.4c-0.1,0.3,0,0.7,0.4,0.8l2.7,1.1l3.4,9.7c-0.1,0.1-0.3,0.2-0.3,0.3l-1,2.7c-0.1,0.2,0,0.3,0.1,0.5
	c0.1,0.1,0.3,0.2,0.4,0.2h0.5c-0.3,0.3-0.5,0.8-0.5,1.3c0,1.1,0.9,1.9,1.9,1.9s1.9-0.9,1.9-1.9c0-0.5-0.2-1-0.5-1.3h4.2
	c-0.3,0.3-0.5,0.8-0.5,1.3c0,1.1,0.9,1.9,1.9,1.9s1.9-0.9,1.9-1.9c0-0.5-0.2-1-0.5-1.3h0.6c0.3,0,0.5-0.2,0.5-0.5
	c0-0.3-0.2-0.5-0.5-0.5H22.7l0.6-1.7c0.1,0,0.2,0.1,0.2,0.1h9.5c0.3,0,0.5-0.2,0.6-0.4l2.7-8.4C36.5,22.7,36.4,22.5,36.3,22.4z
	 M23.9,36.7c-0.5,0-0.9-0.4-0.9-0.9c0-0.5,0.4-0.9,0.9-0.9s0.9,0.4,0.9,0.9C24.8,36.3,24.4,36.7,23.9,36.7z M31,36.7
	c-0.5,0-0.9-0.4-0.9-0.9c0-0.5,0.4-0.9,0.9-0.9c0.5,0,0.9,0.4,0.9,0.9C31.9,36.3,31.5,36.7,31,36.7z M34.4,24.8h-3.3v-1.5h3.8
	L34.4,24.8z M33.5,27.8h-2.4v-1.7H34L33.5,27.8z M26.8,27.8v-1.7h3v1.7H26.8z M29.8,29.1v1.4h-3v-1.4H29.8z M22.5,26.1h3v1.7h-2.4
	L22.5,26.1z M26.8,24.8v-1.5h3v1.5H26.8z M25.6,23.4v1.5h-3.5l-0.5-1.5H25.6z M23.6,29.1h2v1.4h-1.5L23.6,29.1z M31.1,30.5v-1.4h1.9
	l-0.4,1.4H31.1z"/>
<circle fill="#F2A054" stroke="#888788" stroke-width="0.3513" stroke-miterlimit="10" cx="32.3" cy="22.4" r="4"/>
<text transform="matrix(1 0 0 1 31.3232 24.8086)" fill="#FFFFFF" font-family="'OstrichSans-Black'" font-size="6.8884">2</text>
</svg>
